src/icons/IconBag/IconBag_size_m.svg

<svg viewBox="0 0 24 24" fill="none" xmlns="http://www.w3.org/2000/svg">
  <path
    fill-rule="evenodd"
    clip-rule="evenodd"
    d="M7 5C7 3.89543 7.89543 3 9 3H15C16.1046 3 17 3.89543 17 5V7H20C21.1046 7 22 7.89543 22 9V10L12.2425 12.9086C12.0833 12.9484 11.9167 12.9484 11.7575 12.9086L2 10V9C2 7.89543 2.89543 7 4 7H7V5ZM15 5H9V7H15V5Z"
  />
  <path
    d="M22 12L12.7276 14.8489C12.2499 14.9683 11.7501 14.9683 11.2724 14.8489L2 12V19C2 20.1046 2.89543 21 4 21H20C21.1046 21 22 20.1046 22 19V12Z"
  />
</svg>

<svg viewBox="0 0 24 24" xmlns="http://www.w3.org/2000/svg">
  <path
    fill-rule="evenodd"
    clip-rule="evenodd"
    d="M7 5a2 2 0 012-2h6a2 2 0 012 2v2h3a2 2 0 012 2v1l-9.758 2.909a1 1 0 01-.485 0L2 10V9a2 2 0 012-2h3V5zm8 0H9v2h6V5z"
  />
  <path d="M22 12l-9.272 2.849a3 3 0 01-1.456 0L2 12v7a2 2 0 002 2h16a2 2 0 002-2v-7z" />
</svg>
